X:10012
T:Jack the Horse Courser
R:March
C:Trad.
O:England
Z:Paul Hardy's Session Tunebook 2015 (see www.paulhardy.net). Creative Commons cc by-nc-sa licenced.
M:4/4
L:1/8
Q:1/4=160
K:G
"G"G2g2 d2cB|"C"cBAG "D"F2 ED|"G"GDGB "D"AFED|"G"GDGB "D"AFED|
"G"G2g2 d2cB|"C"cBAG "D"F2 ED|"Am"c2BA "G"B2AG|"D"D2F2 "G"G4:|
|:"G"d2g2 "D"f2ed|"Em"e2fd "Am"c2BA|"D"dAdf "Am"ecBA|"D"dAdf "Am"ecBA|
"G"d2g2 "D"f2ed|"Em"e2fd "Am"c2BA|"C"c2BA "G"B2AG|"D"D2F2"G"G4:|

